img/why-we/pencil-tablet.svg

<svg width="46" height="46" viewBox="0 0 46 46" fill="none" xmlns="http://www.w3.org/2000/svg">
<g clip-path="url(#clip0_359_390)">
<path d="M43.3161 2.23091C41.7492 0.730164 40.0228 -0.0302734 38.1785 -0.0302734C35.2948 -0.0302734 33.1903 1.83273 32.6153 2.40341C31.8046 3.20554 4.17297 30.8487 4.17297 30.8487C3.99185 31.0298 3.86103 31.2569 3.79347 31.5042C3.17103 33.807 0.0487824 44.0248 0.0171574 44.1283C-0.143843 44.6515 -9.25921e-05 45.2222 0.385157 45.6075C0.662595 45.8835 1.03203 46.0315 1.4101 46.0315C1.5596 46.0315 1.7091 46.0085 1.85572 45.9611C1.96066 45.9266 12.5076 42.5183 14.2441 41.9994C14.4727 41.9304 14.6825 41.8067 14.8522 41.6385C15.949 40.5547 41.7205 15.0692 43.4311 13.3025C45.2007 11.4798 46.0804 9.57941 46.0459 7.66035C46.01 5.76429 45.0914 3.93866 43.3132 2.23235L43.3161 2.23091ZM32.1568 7.00054C32.8885 7.17735 34.6163 7.7581 36.3802 9.53773C38.1627 11.336 38.6442 13.3917 38.7348 13.8603C33.0825 19.4838 20.0717 32.3566 14.9427 37.4295C14.4698 36.327 13.7036 34.9973 12.4717 33.7567C10.968 32.2416 9.4371 31.3863 8.25691 30.9047C13.3327 25.8275 26.5893 12.5665 32.1553 7.00198L32.1568 7.00054ZM6.30622 33.3298C7.09685 33.5397 8.73703 34.1492 10.4088 35.8339C11.6968 37.1334 12.3049 38.5652 12.578 39.4392C10.5799 40.0817 6.20416 41.5911 3.42547 42.4881C4.24916 39.777 5.64066 35.5565 6.30622 33.3298ZM41.3467 11.2469C41.2878 11.3073 41.19 11.405 41.0736 11.5229C40.6194 10.3528 39.823 8.84916 38.4415 7.45766C37.0313 6.03598 35.601 5.19791 34.4553 4.70198C34.5531 4.60566 34.6278 4.52948 34.658 4.50073C34.8219 4.33829 36.3155 2.91085 38.1756 2.91085C39.2465 2.91085 40.2988 3.3996 41.3022 4.36273C42.4924 5.50554 43.1077 6.63254 43.1278 7.71354C43.1479 8.81754 42.547 10.0064 41.3453 11.2469H41.3467Z" fill="#FBD8D5"/>
</g>
<defs>
<clipPath id="clip0_359_390">
<rect width="46" height="46" fill="white"/>
</clipPath>
</defs>
</svg>

<svg width="46" height="46" fill="none" xmlns="http://www.w3.org/2000/svg"><g clip-path="url(#clip0_359_390)"><path d="M43.316 2.23C41.75.73 40.023-.03 38.178-.03c-2.883 0-4.988 1.863-5.563 2.433-.81.803-28.442 28.446-28.442 28.446a1.48 1.48 0 00-.38.655C3.171 33.807.05 44.024.017 44.128a1.48 1.48 0 00.368 1.48 1.452 1.452 0 001.47.353c.106-.034 10.653-3.443 12.39-3.962.228-.069.438-.192.607-.36 1.097-1.084 26.869-26.57 28.58-28.337C45.2 11.48 46.08 9.58 46.045 7.66c-.036-1.896-.955-3.721-2.733-5.428l.003-.001zM32.156 7c.733.177 2.46.758 4.224 2.538 1.783 1.798 2.264 3.854 2.355 4.322a16336.898 16336.898 0 01-23.792 23.57 11.826 11.826 0 00-2.471-3.673c-1.504-1.515-3.035-2.37-4.215-2.852 5.076-5.078 18.332-18.339 23.898-23.903l.002-.001zM6.307 33.33c.79.21 2.431.82 4.103 2.504a8.976 8.976 0 012.169 3.605c-1.998.643-6.374 2.152-9.153 3.05.824-2.712 2.216-6.932 2.881-9.16zm35.04-22.083l-.272.276a11.871 11.871 0 00-2.633-4.065c-1.41-1.422-2.84-2.26-3.986-2.756.098-.096.173-.173.203-.201.164-.163 1.657-1.59 3.518-1.59 1.07 0 2.123.489 3.126 1.452 1.19 1.143 1.806 2.27 1.826 3.35.02 1.105-.581 2.293-1.783 3.534h.002z" fill="#FBD8D5"/></g><defs><clipPath id="clip0_359_390"><path fill="#fff" d="M0 0h46v46H0z"/></clipPath></defs></svg>
